Catalina-light/actions/22/code-block.svg

<svg viewBox="0 0 22 22" xmlns="http://www.w3.org/2000/svg">
<defs>
<style id="current-color-scheme" type="text/css">.ColorScheme-Text {
        color:#4d4d4d
      }</style>
</defs>
<path class="ColorScheme-Text" d="m8 3.9965v4.0504s0 0.95313 1 0.95313h4.0156c-0.0156 0 0.98437-6e-3 0.98437-1v-3.9844c0-1.0156-0.96875-1.0156-0.96875-1.0156h-4.0544c0.0232 0-0.97684 9e-3 -0.97684 0.9965zm-5 10.021v3.9664s0 1.016 1.0271 1.016h3.9996c-0.0267 0 0.97334-0.0304 0.97334-1.0271v-3.9996s-3e-3 -0.97334-0.98439-0.97334h-4.0327c0.0171 0-0.98289 0.0181-0.98289 1.0175zm10-0.0332v4.0106c0 1.005 1.0371 1.005 1.0371 1.005h3.9664c-4e-3 0 0.9965 0.0121 0.9965-0.9829v-4.0438c0-0.97333-1.0076-0.97333-1.0076-0.97333h-3.9885s-1.0039 0-1.0039 0.98438z" fill="currentColor"/>
</svg>

<svg xmlns="http://www.w3.org/2000/svg" viewBox="0 0 22 22">
  <defs id="defs3051">
    <style type="text/css" id="current-color-scheme">
      .ColorScheme-Text {
        color:#4d4d4d
      }
      </style>
  </defs>
 <path 
     style="fill:currentColor;fill-opacity:1;stroke:none"      
	 class="ColorScheme-Text"
        d="M 8,3.9965 8,8.04687 C 8,8.04687 8,9 9,9 l 4.01563,0 C 13.00003,9 14,8.994 14,8 L 14,4.01562 C 14,3 13.03125,3 13.03125,3 L 8.97684,3 C 9.00004,3 8,3.009 8,3.9965 Z M 3,14.01753 3,17.98396 C 3,17.98396 3,19 4.02709,19 l 3.99957,0 C 7.99996,19 9,18.9696 9,17.97291 L 9,13.97334 C 9,13.97334 8.997,13 8.01561,13 L 3.98289,13 C 3.99999,13 3,13.0181 3,14.01753 Z m 10,-0.0332 0,4.01062 c 0,1.005 1.03707,1.005 1.03707,1.005 l 3.96643,0 c -0.004,0 0.9965,0.0121 0.9965,-0.9829 l 0,-4.04377 c 0,-0.97333 -1.00756,-0.97333 -1.00756,-0.97333 l -3.98852,0 c 0,0 -1.00392,0 -1.00392,0.98438 z"
     />
</svg>
